book-remove-outline.svg

<svg fill="currentColor" viewBox="0 0 24 24"><path d="M13.09 20c.12.72.37 1.39.72 2H6c-1.11 0-2-.89-2-2V4a2 2 0 0 1 2-2h12a2 2 0 0 1 2 2v9.09c-.33-.05-.66-.09-1-.09s-.67.04-1 .09V4h-5v8l-2.5-2.25L8 12V4H6v16zm9.45-3.12-1.42-1.41L19 17.59l-2.12-2.12-1.41 1.41L17.59 19l-2.12 2.12 1.41 1.42L19 20.41l2.12 2.13 1.42-1.42L20.41 19z"/></svg>

<svg  viewBox="0 0 24 24" fill="currentColor"><path  d="M13.09 20C13.21 20.72 13.46 21.39 13.81 22H6C4.89 22 4 21.11 4 20V4C4 2.9 4.89 2 6 2H18C19.11 2 20 2.9 20 4V13.09C19.67 13.04 19.34 13 19 13C18.66 13 18.33 13.04 18 13.09V4H13V12L10.5 9.75L8 12V4H6V20H13.09M22.54 16.88L21.12 15.47L19 17.59L16.88 15.47L15.47 16.88L17.59 19L15.47 21.12L16.88 22.54L19 20.41L21.12 22.54L22.54 21.12L20.41 19L22.54 16.88Z"/></svg>
